X: 1
T: Kilfenora
M: 12/8
L: 1/8
R: slide
K: Gmaj
|:D|G2B B2D G2B B2D|G2B BAB cBc A2D|G3 BAG EDE c3|BAF DEF G3 G2:|
|:B|d2g g2f efe d2B|GBd dcB cBc A2B|d2g g2f efe d2B|GBd dcB cBA G2:|
|:B|A2F D2B A2F D2B|A2F GFE D3 DEF|GFG BAG EDE c3|BAF DEF G3 G2:|
